X:7
T: It's Dark as a Dungeon
C: Merle Travis
M:3/4
L:1/4
K:C clef=treble 
E/-D/ | "C"C C C/D/ | "Em"D G G | "F"A c c/-d/ | "G7"d2 c | "C"e e3/ d/ | "Em"c G G/G/ | "F"A c3/ c/ | "C"A/G/- G2 | 
-G2 E/D/ | "C"C C C/D/ | "Em"E G G | "F"A c c/d/ | "G7"d2 c/c/ | "C"e e3/ d/ | "Em"c G G | "F"A c3/ c/ | 
"C"A/G/ -G2 | - G2 G/G/ | "G"G d3/ e/ | d B G | "F"c c3/ B/ | "C"G2 G/G/ | "G"F d3/ e/ | d B G/G/ | 
"F"c c A | "C"G2 E/D/ | "C"C2 C/D/ | "Em"E2 G/G/ | "F"A c c/d/ | "G"d3 | -d2 c/c/ | "C"e e3/ d/ | 
"Em"c G G | "F"A c3/ c/ | "C"A/G/ - G2 | - G2 z ||
W: Come and listen you fellers so young and so fine
W:And seek not your fortune in the dark dreary mines
W:It will form as a habit and seep in your soul
W:'Til the stream of your blood is as black as the coal
W:
W:It's dark as a dungeon and damp as the dew
W:Where danger is double and pleasures are few
W:Where the rain never falls and the sun never shines
W:It's dark as a dungeon way down in the mines
W:
W:It's a-many a man I've seen in my day
W:Who live just to labor his whole life away
W:Like a fiend with his dope and a drunkard his wine
W:A man will have lust for the lure of the mines
W:
W:Where it's dark as a dungeon and damp as the dew
W:Where the danger is double and the pleasures are few
W:Where the rain never falls and the sun never shines
W:It's dark as a dungeon way down in the mines
W:
W:I hope when I'm gone and the ages shall roll
W:My body will blacken and turn into coal
W:Then I'll look from the door of my heavenly home
W:And pity the miner a-diggin' my bones
W:
W:Where it's dark as a dungeon and damp as the dew
W:Where the danger is double and the pleasures are few
W:Where the rain never falls and the sun never shines
W:It's dark as a dungeon way down in the mines

